frontend/public/svg/e-commerce/bag.svg

<svg width="158" height="159" viewBox="0 0 158 159" fill="none" xmlns="http://www.w3.org/2000/svg">
<path d="M157.135 149.606C156.61 146.54 156.071 143.371 155.411 140.272C149.096 110.643 142.848 86.4927 135.746 64.2679C135.005 61.9491 134.249 59.6348 133.494 57.3206C132.157 53.2276 130.775 48.9962 129.503 44.8108C128.534 41.6223 127.693 40.6103 124.325 40.4718C123.052 40.4186 121.765 40.4547 120.522 40.4856C119.649 40.5085 118.775 40.5335 117.904 40.5257C117.354 40.508 116.806 40.4536 116.263 40.3628L116.047 40.332C115.967 39.5963 115.886 38.8801 115.807 38.1785C115.601 36.3532 115.406 34.6289 115.271 32.9028C114.617 24.2089 111.183 15.9563 105.478 9.36333C99.6502 2.49939 91.8601 -0.459981 82.3189 0.568501C75.1957 1.33641 68.948 4.33644 63.2585 7.46389C55.3535 11.8082 50.3981 18.5481 48.1101 28.0696C47.5918 30.5346 47.2794 33.0383 47.1762 35.555C47.1106 36.533 47.0416 37.5103 46.9497 38.4816C46.8362 39.684 46.7719 40.8899 46.7043 42.1671C46.6826 42.5681 46.6609 42.9777 46.6386 43.3977L45.8931 43.391C44.9913 43.3819 44.1386 43.3748 43.2985 43.409C42.0088 43.4621 40.7192 43.5282 39.4301 43.5952C37.7236 43.6844 35.9574 43.7756 34.224 43.8301C33.237 43.7877 32.2667 44.0954 31.4842 44.6986C30.7018 45.3017 30.1575 46.1618 29.9473 47.1272C29.0029 50.3222 28.0341 53.5113 27.0654 56.6998C25.4298 62.0818 23.739 67.644 22.1973 73.154C18.7259 85.5588 15.288 98.1985 11.963 110.42C10.8542 114.495 9.74454 118.57 8.63402 122.645C7.82672 125.606 7.02691 128.569 6.23448 131.534C5.29153 135.047 4.34141 138.559 3.38403 142.069C3.06505 143.229 2.70012 144.405 2.34832 145.541C1.88495 147.034 1.40648 148.577 1.01858 150.125C0.165344 153.521 1.00742 155.253 4.11584 156.516C5.73796 157.18 7.46869 157.537 9.22085 157.571C12.3621 157.598 15.5466 157.537 18.6281 157.481C21.1766 157.434 23.8132 157.387 26.4005 157.386C30.2624 157.382 34.1742 157.428 37.9652 157.472C41.2961 157.51 44.6277 157.548 47.9586 157.556C55.4027 157.576 62.8469 157.585 70.2908 157.585C80.3085 157.591 90.6675 157.597 100.856 157.64C102.686 157.648 104.478 157.652 106.232 157.652C124.567 157.652 139.091 157.226 152.747 156.301C154.723 156.17 155.983 155.673 156.712 154.747C157.441 153.82 157.631 152.476 157.295 150.524L157.135 149.606ZM54.3152 43.1824C54.4353 41.976 54.533 40.8089 54.6289 39.6728C54.8067 36.9159 55.1381 34.1711 55.6213 31.451C57.1703 23.6491 60.9848 17.8138 67.2822 13.6126C73.1184 9.71854 78.5469 7.87476 84.2387 7.87476C84.7414 7.87476 85.2475 7.88894 85.7555 7.91736C90.8263 8.20483 94.79 10.1489 97.5367 13.6879C103.392 21.2397 106.515 30.1135 107.074 40.7993C95.8572 41.5396 84.8898 41.9603 73.2929 42.404C67.1024 42.6403 60.7106 42.8857 54.3152 43.1824ZM43.0052 69.9222C43.72 71.5 44.9377 72.7969 46.4678 73.6088C47.9978 74.4207 49.754 74.7029 51.4614 74.4109C54.6775 73.9291 57.6966 70.9408 58.3345 67.606C58.9095 64.615 57.4584 62.436 53.3412 60.1533L54.1091 50.2656L107.338 49.2699V59.711C105.157 62.2602 104.165 64.4675 104.307 66.4515C104.42 68.0405 105.231 69.4634 106.785 70.8004C107.673 71.5643 108.704 72.1439 109.817 72.5068C110.93 72.8698 112.104 73.0076 113.271 72.9138C114.191 72.8606 115.09 72.6243 115.917 72.2187C116.744 71.8131 117.482 71.246 118.086 70.551C118.649 69.9242 119.077 69.1891 119.346 68.3909C119.615 67.5928 119.718 66.7481 119.648 65.9087C119.451 63.7776 118.08 61.5768 115.681 59.527V49.3349H123.339C129.049 64.7936 148.702 136.849 148.773 148.477C121.502 149.25 93.7247 149.084 66.8543 148.924C55.5445 148.859 44.0054 148.788 32.4204 148.788C24.8141 148.788 17.1875 148.818 9.59234 148.897C11.7871 140.91 14.0522 132.832 16.2456 125.011C23.1162 100.511 30.2184 75.184 35.964 49.7663C36.3696 49.7873 36.7721 49.8089 37.1717 49.8317C38.5099 49.9052 39.774 49.9748 41.069 50.0063C42.3639 50.0378 43.6806 50.0299 45.0772 50.0233C45.5367 50.0233 46.0164 50.0182 46.5119 50.0169L46.9714 59.9854C43.7619 62.4394 40.9285 65.2584 43.0052 69.9222Z" fill="black"/>
</svg>

<svg xmlns="http://www.w3.org/2000/svg" width="158" height="159" fill="none" viewBox="0 0 158 159"><path fill="#000" d="M157.135 149.606c-.525-3.066-1.064-6.235-1.724-9.334-6.315-29.629-12.563-53.78-19.665-76.004-.741-2.319-1.497-4.633-2.252-6.947-1.337-4.093-2.719-8.325-3.991-12.51-.969-3.189-1.81-4.2-5.178-4.34-1.273-.052-2.56-.016-3.803.015-.873.023-1.747.047-2.618.04a12 12 0 0 1-1.641-.163l-.216-.031q-.12-1.102-.24-2.154c-.206-1.825-.401-3.55-.536-5.275a40.63 40.63 0 0 0-9.793-23.54C99.65 2.5 91.86-.46 82.318.57c-7.122.767-13.37 3.767-19.06 6.895-7.905 4.344-12.86 11.084-15.148 20.606a45.4 45.4 0 0 0-.934 7.485c-.065.978-.134 1.955-.226 2.927a90 90 0 0 0-.246 3.685l-.065 1.23-.746-.006a51 51 0 0 0-2.595.018c-1.29.053-2.579.12-3.868.186-1.706.09-3.473.18-5.206.235a4.19 4.19 0 0 0-4.277 3.297c-.944 3.195-1.913 6.384-2.882 9.573-1.635 5.382-3.326 10.944-4.868 16.454-3.471 12.405-6.909 25.045-10.234 37.266q-1.663 6.113-3.329 12.225-1.21 4.442-2.4 8.889-1.414 5.27-2.85 10.535c-.319 1.16-.684 2.336-1.036 3.472-.463 1.493-.942 3.036-1.33 4.584-.853 3.396-.01 5.128 3.098 6.391a14.2 14.2 0 0 0 5.105 1.055c3.141.027 6.326-.034 9.407-.09 2.549-.047 5.185-.094 7.773-.095 3.861-.004 7.773.042 11.564.086 3.331.038 6.663.076 9.994.084q11.166.03 22.332.029c10.017.006 20.377.012 30.565.055q2.745.012 5.376.012c18.335 0 32.859-.426 46.515-1.351 1.976-.131 3.236-.628 3.965-1.554.729-.927.919-2.271.583-4.223zM54.315 43.182c.12-1.206.218-2.373.314-3.51.178-2.756.51-5.5.992-8.221 1.55-7.802 5.364-13.637 11.661-17.838 5.836-3.894 11.265-5.738 16.957-5.738q.753 0 1.516.042c5.071.288 9.035 2.232 11.782 5.77 5.855 7.553 8.978 16.426 9.537 27.112-11.217.74-22.184 1.161-33.781 1.605-6.19.236-12.582.482-18.978.778m-11.31 26.74a7.83 7.83 0 0 0 8.456 4.489c3.217-.482 6.236-3.47 6.874-6.805.575-2.991-.877-5.17-4.994-7.453l.768-9.887 53.229-.996v10.44c-2.181 2.55-3.173 4.757-3.031 6.74.113 1.59.924 3.012 2.478 4.35a8.86 8.86 0 0 0 6.486 2.113 6.9 6.9 0 0 0 4.815-2.363 6.2 6.2 0 0 0 1.562-4.642c-.197-2.131-1.568-4.332-3.967-6.382V49.335h7.658c5.71 15.459 25.363 87.514 25.434 99.142-27.271.773-55.048.607-81.919.447-11.31-.065-22.849-.136-34.434-.136-7.606 0-15.233.03-22.828.109a4740 4740 0 0 1 6.654-23.886c6.87-24.5 13.972-49.827 19.718-75.245q.608.031 1.208.066c1.338.073 2.602.143 3.897.174 1.295.032 2.612.024 4.008.017.46 0 .94-.005 1.435-.006l.46 9.968c-3.21 2.454-6.044 5.273-3.967 9.937"/></svg>
